X: 14524
T: Gan Ainm
R: jig
M: 6/8
K: Dmajor
A,DD FAD|BBA Bcd|BcB BAF|GFE EDB,|
A,DD FAD|BBA Bdf|fed e/d/BA|1 BFD D2 B,:|2 BFD D2 e||
fdd FGA|ecc EFA|dcB c/B/AF|GFE EDF|
Fdd FGA|BcA Bcd|fed e/d/BA|1 BFD Dde:|2 BFD D2 B,||

